X:1
T:Gad, LMD
T:Gad, LMD
T:Charles Hutchinson Gabriel, 1902
T:Public Domain Courtesy of the Cyber Hymnal™
C:Charles Hutchinson Gabriel, 1902
Z:Public Domain
Z:Courtesy of the Cyber Hymnal™
%%score 1 ( 2 3 )
L:1/8
Q:1/4=100
M:4/4
K:Eb
V:1 treble 
V:2 bass 
V:3 bass 
V:1
 [B,G]2 | [B,G]3 [EG] [FA][EG][Ac][E_c] | [GB]6 [GB]2 | [GB]3 [F=A] [CA]2 [D_A]2 | %4
 [FA]3 [EG] [B,G]2 [E_d]2 | [Ec]3 [D=B] [Ec][Fc][Ec][CA] | [B,G]2 [EG]2 [GB]2 [Ac]2 | %7
 [GB]3 [EG] [FA]3 [EG] | [EG]6 [EG]2 | [GB]>[Ac] [GB]4 [G_d]2 | [Ac]>[E_c] [GB]4 [GB]2 | %11
 [GB]3 [F=A] [FA][CA][GA][FA] | [FA]6 [B,A]2 x3 | [B,G]3 [EG] [FA][EG][Ac][E_c] | %14
 [GB]3 [GB] [B_d]2 [Ac]2 | [GB]3 [EG] [FA]3 [EG] x | [EG]6 |] %17
V:2
 z2 | (E,,B,, E,2) E,,2 E,2 | (E,,B,,E,G, B,2) z2 | (F,,C, F,2) (F,,C,) [B,,F,]2 | %4
 (E,,B,, E,2) [E,,E,]2 [E,G,]2 | (z C,A,) z [A,,A,]2 A,E, | E,,2 C,2 [C,E]2 [A,E]2 | %7
 [B,E]2 B,,2 [B,D]2 B,,2 | [E,B,]6 [E,B,]2 | [E,E]2 [E,E]6 | [A,E]2 [E,E]6 | %11
 z F,C z F,[F,,F,]F,[F,CE] | z [D,F,]2 x8 | E,3 [E,B,] EB, [E,,E,]2 | %14
 [E,,E,]3 [E,,E,] [G,E]2 [B,E]2 | [B,E]3 B, D3 B,,[E,C] | [E,B,]6 |] %17
V:3
 x2 | x8 | x8 | x8 | x8 | (A,,4 x A,,2) x | x8 | x8 | x8 | x8 | x8 | C,4 x4 | %12
 ([B,D]6 F,D,C, B,,2) | x4 E,2 x2 | x8 | x3 B, B,2 x3 | x6 |] %17

